X:1
T:Work and Pray
T:Work and Pray
T:Merritt Jerome Munger
T:Katherine Sumner Burr, 1878
T:Public Domain Courtesy of the Cyber Hymnal™
T:Public Domain Courtesy of the Cyber Hymnal™
C:Merritt Jerome Munger
Z:Public Domain
Z:Courtesy of the Cyber Hymnal™
%%score ( 1 2 ) ( 3 4 )
L:1/8
Q:1/4=93
M:4/4
K:Ab
V:1 treble 
V:2 treble 
V:3 bass 
V:4 bass 
V:1
 E2 C>E A2 E>A | [EB]>[EG] [EF]>E [Ec]4 | [Fd]>[Fd] [Fd]>[Fd] [Ec]2 [CA]>[Ec] | %3
w: 1.~Up, friends of Je- sus, the|har- vest now is white,|Work will soon be o- ver, fast|
w: 2.~Up, friends of Je- sus, for|time will soon be o’er,|Har- vest days are pass- ing to|
w: 3.~Shout, friends of Je- sus, for|when our work is done,|Joy- ful we will ga- ther to|
 [=DB]>[DA] [DG]>[DF] E4 | E2 C>E A2 E>A | [EB]>[EG] [EF]>E [Ec]4 | %6
w: falls the shade of night;|Strong in His strength, let us|bind the gold- en sheaves,|
w: come a- gain no more.|Wake from re- pose, hear the|Mas- ter call- ing still,|
w: greet the har- vest home;|Then let us has- ten the|gold- en sheaves to bind,|
 [Fd]>[Fd] [DF]>[Fd] [Ec]2 [CE]>[EA] | [EG]2 [EG]2 [EA]2 ||"^Refrain" [GB]>[Ac] | %9
w: Could we meet the Mas- ter with|naught but leaves?||
w: Rise to ear- nest ef- fort with|right good will.|Work and|
w: Rest and life e- ter- nal we|all shall find.||
 [Bd]4- [Bd]>[DG] [CA]>[EB] | [Ac]6 [Ec]>[Ec] | [Ed]2 [Ec]2 (c>B) (B>c) | B6 [CA]>[DB] | %13
w: ||||
w: pray, * yes, work and|pray, Let the|watch- word pass * a- *|long, Work and|
w: ||||
 [Ec]4- [Ec]>[DB] [CA]>[Ec] | [Fd]6 [Fd]>[Fd] | [Ec]2 [EA]2 [EA]2 [DG]2 | [CA]6 z2 |] %17
w: ||||
w: pray, * now while ’tis|day, Come and|join our hap- py|throng.|
w: ||||
V:2
 E2 C>E A2 E>A | x7/2 E/ x4 | x8 | x4 E4 | E2 C>E A2 E>A | x7/2 E/ x4 | x8 | x6 || x2 | x8 | x8 | %11
 x4 =D2 D2 | (E4- ED) x2 | x8 | x8 | x8 | x8 |] %17
V:3
 E,2 C,>E, A,2 E,>A, | [E,G,]>[E,B,] [E,A,]>[E,G,] A,4 | %2
w: ~ ~ ~ ~ ~ ~|~ ~ ~ ~ ~|
 [D,A,]>[D,A,] [D,A,]>[D,A,] [A,,A,]2 [A,,A,]>[A,,A,] | [B,,F,]>[B,,F,] [B,,B,]>[B,,A,] [E,G,]4 | %4
w: ~ ~ ~ ~ ~ ~ ~|~ ~ ~ ~ ~|
 E,2 C,>E, A,2 E,>A, | [E,G,]>[E,B,] [E,A,]>[E,G,] A,4 | %6
w: ~ ~ ~ ~ ~ ~|~ ~ ~ ~ ~|
 [D,A,]>[D,A,] [D,A,]>[D,A,] [A,,A,]2 [A,,A,]>[A,,C] | [E,C]2 [E,D]2 [A,,C]2 || z2 | %9
w: ~ ~ ~ ~ ~ ~ ~|~ ~ ~||
 z2 [E,E]>[E,E] [E,E]3/2 z/ z2 | z2 [A,E]>[A,E] [A,E]2 A,>A, | [G,B,]2 A,2 [F,B,]2 (B,>A,) | %12
w: Work and pray,|Work and pray, ~ ~|~ ~ ~ ~ *|
 [E,G,]6 z2 | z2 [A,,A,]>[A,,A,] [A,,A,]3/2 z/ z2 | z2 [D,A,]>[D,A,] [D,A,]2 [D,A,]>[D,A,] | %15
w: ~|Work and pray,|While ’tis day, * *|
 [E,A,]2 [E,C]2 [E,C]2 [E,B,]2 | [A,,A,]6 z2 |] %17
w: ||
V:4
 E,2 C,>E, A,2 E,>A, | x4 A,4 | x8 | x8 | E,2 C,>E, A,2 E,>A, | x4 A,4 | x8 | x6 || x2 | x8 | %10
 x6 A,>A, | x2 A,2 B,,2 x2 | x8 | x8 | x8 | x8 | x8 |] %17

